X:1
T:Title
%%score ( 1 2 ) ( 3 4 )
L:1/8
Q:1/4=90
M:4/4
K:Eb
V:1 treble nm="Midi_20"
V:2 treble 
V:3 bass nm="Midi_20"
V:4 bass 
V:1
"^St Gabriel (88. 84)""^F. A. Gore Ouseley\n(1825-89)" G2 | B2 A2 G2 A2 | G3 F E2 || E2 | %4
 c2 B2 A2 B2 | G2 =A2 B2 || B2 | B2 G2 A2 F2 | G2 G2 A2 || G2 | E4 F4 | E6 |] %12
V:2
 E2 | E2 E2 E2 E2 | E2 D2 E2 || _D2 | C=D =E2 F2 F2 | E2 E2 D2 || _D2 | C2 C2 C2 F2 | F2 =E2 F2 || %9
 D2 | E4- E2 D2 | E6 |] %12
V:3
 E2 | D2 C2 B,2 C2 | B,2 A,2 G,2 || B,2 | A,2 B,2 C2 B,2 | B,2 C2 F,2 || F,2 | =E,2 G,2 F,2 C2 | %8
 _D2 C2 C2 || =B,2 | C2 G,2 A,4 | G,6 |] %12
V:4
 E,2 | E,2 E,2 E,2 A,,2 | B,,2 B,,2 C,2 || G,2 | A,2 G,2 F,2 D,2 | E,D, C,2 B,,2 || B,,2 | %7
 C,2 =E,2 F,2 A,,2 | B,,2 C,2 F,2 || G,2 | C,4 B,,4 | E,6 |] %12

